!!!SOCIAL_FUNCTION:	songs of dances presented at makah day celebrations
!!!PDT:	1939
!!!OTL: No_65_Homatsa_Song_(b).krn
!!!LANG: Non-Tone
!!!LING_GROUP: Wakashan
!!!REG: Pacific Northwest
**kern
*staff1
=1-
*clefF4
*k[f#c#]
*M3/4
2r
8r
8A\
=2!|:
8B\L
8B\J
4A\
8r
8B\
=3
8B\L
8A\J
4F#\
8r
8A\
=4
8A\L
8F#\J
4D\
8r
8F#\
=5
8F#\L
8F#\J
4F#\
8r
8E\
=6
8E\L
8E\J
4E\
8r
8D\
=7
8F#\L
8F#\J
4F#\
8r
8A\
=8
8A\L
8F#\J
4D\
8r
8F#\
=9
8F#\L
8F#\J
4F#\
8r
8E\
=10
8E\L
8D\J
4E\
8r
8E\
=11
8F#\L
8F#\J
4F#\
8r
8A\
=12:|!
8B\L
8B\J
4B\
8r
8B\
=13
4B\
4B\
16A\
16r
8B\
=14
8A\L
8A\J
8A\L
8F#\J
8r
8A\
=15
8A\L
8A\J
4A\
8r
8A\
=16
4A\
4A\
16F#\
16r
8A\
=17
8F#\L
8F#\J
8D\
8r
8r
8A\
=18
8A\L
8A\J
8A\
8r
8r
8A\
=19
4A\
4A\
16F#\
16r
8A\
=20
8F#\L
8F#\J
8D\
4r
8B\
=21
8B\L
8B\J
8B\L
8A\J
4r
=22
4B\
4F#\
8r
8A\
=23
8A\L
8A\J
4A\
4r
=24
4A\
8A\L
8F#\J
8r
8D\
=25
8D\L
8D\J
4D\
8r
8F#\
=26
8F#\L
8F#\J
4F#\
8r
8E\
=27
8E\L
8D\J
4E\
8r
8F#\
=28
8F#\L
8F#\J
4F#\
8r
8A\
=29
8A\L
8F#\J
4D\
8r
8F#\
=30
8F#\L
8F#\J
4F#\
8r
8E\
=31
8E\L
8D\J
4E\
8r
8E\
=32
8F#\L
8F#\J
8F#\
8r
4r
==
*-
